X:1
T:Raise the Song of Triumph
T:Raise the Song of Triumph
T:Thomas Crawford
T:Thomas Crawford, 1883
T:Public Domain Courtesy of the Cyber Hymnal™
T:Public Domain Courtesy of the Cyber Hymnal™
C:Thomas Crawford
Z:Public Domain
Z:Courtesy of the Cyber Hymnal™
%%score ( 1 2 ) 3
L:1/8
Q:1/4=86
M:2/4
K:Ab
V:1 treble 
V:2 treble 
V:3 bass 
V:1
 [Ac][Ac] [Ad][Ac] | [Ge]2 [GB]2 | A[CA] [DG][DF] | [CE]4 | [DE][DE] [DF][DE] | [CE] [EA]3 | %6
w: 1.~Raise the song of|tri- umph,|swell the strains of|joy;|Hymns in praise of|Je- sus|
w: 2.~Day by day we’re|pass- ing|through this world of|care,|Year by year ap-|proach- ing|
w: 3.~Ten- der- ly the|Shep- herd|ev- ery lamb doth|guide;|Keep us then, dear|Je- sus,|
 [=Dc][DB] [DA][DF] | [EG]4 | [CA][CE] [CE][B,D] | C [CE]3 | [DF][FB] [FB]>[Fc] | [GB]4 | %12
w: let our lips em-|ploy;|As our Sav- ior|greet Him,|grate- ful trib- ute|bring,|
w: Heav’n so bright and|fair.|Old and young to-|ge- ther|join the pil- grim|band|
w: safe- ly by Thy|side:|Faith- ful to Thy|prom- ise,|storms can ne’er dis-|may;|
 [Ec][Ac] [Ad][_Ge] | [Fe][Fe] [Fd][FB] | [Ec]2 [GB]2 | [EA]4 ||"^Refrain" [CA]2 [CE]2 | %17
w: Prais- es to our|cap- tain, prais- es|to our|king.||
w: March- ing on to|vic- tory and the|prom- ised|land.|For- ward,|
w: Migh- ty Cap- tain,|lead us still in|Zi- on’s|way.||
 [CA]2 [CE]2 | [DF][FA] [FA]>[AB] | [Ac]4 | [Ge]2 [GB]2 | [Ae]2 [Ac]2 | [=DB][DA] [DG][DA] | %23
w: ||||||
w: for- ward!|vic- tory be the|cry;|On- ward,|on- ward!|ban- ners wav- ing|
w: ||||||
 [DB]4 | [CA]2 [CE]2 | [CA]2 [CE]2 | [DF][FA] [FA]>[FB] | [=Ec]3 [Ec] | [FB][FA] [EG][DF] | %29
w: ||||||
w: high;|Join the|an- gel|cho- rus in the|sky, And|sing a- loud to|
w: ||||||
 [DE]2 [DB]2 | [CA]4 |] %31
w: ||
w: Christ our|king.|
w: ||
V:2
 x4 | x4 | A x3 | x4 | x4 | x4 | x4 | x4 | x4 | C x3 | x4 | x4 | x4 | x4 | x4 | x4 || x4 | x4 | %18
 x4 | x4 | x4 | x4 | x4 | x4 | x4 | x4 | x4 | x4 | x4 | x4 | x4 |] %31
V:3
 [A,E][A,E] [A,F][A,E] | [E,D]2 [E,D]2 | [A,,C][A,,A,] [D,A,][D,A,] | [A,,A,]4 | %4
 [E,G,][E,G,] [E,A,][E,G,] | [A,,A,] [C,A,]3 | [B,,F,][B,,F,] [B,,B,][B,,B,] | [E,B,]4 | %8
 [A,,A,][A,,A,] [A,,A,][A,,A,] | [A,,A,] [A,,A,]3 | [D,A,][D,D] [D,D]>[D,D] | [E,D]4 | %12
 [A,C][A,E] [A,F][A,C] | [D,D][D,D] [D,D][D,D] | [E,A,]2 [E,D]2 | [A,C]4 || [A,,A,]2 [A,,A,]2 | %17
 [A,,A,]2 [A,,A,]2 | [D,A,][D,D] [D,D]>[D,F] | [A,E]4 | [E,E]2 [E,E]2 | [A,C]2 [A,E]2 | %22
 [B,,B,][B,,B,] [B,,B,][B,,B,] | [E,G,]4 | [A,,A,]2 [A,,A,]2 | [A,,A,]2 [A,,A,]2 | %26
 [D,A,][D,D] [D,D]>[D,F,] | [C,G,]3 [C,G,] | [D,F,][D,F,] [D,G,][D,A,] | [E,A,]2 [E,G,]2 | %30
 [A,,A,]4 |] %31

